X: 4341
M: 6/8
L: 1/8
K: C
!f!G !segno!|\
c>cc ced | d>cc cde |\
e>ff fdd | d>ee e2G |\
c>cc ced | d>cc cde |\
e>dd ded | de^f g2 :|\
c2d e2a | (g3 e2)G |
c2d e2a | (g3 e2)e |\
f2f fef | f3 def |\
a2a aga | a2g/f/ e2e |\
dfe dfe | dz g/g/ gz e |
dfe dfe | dG/^F/G/A/ B/A/G/A/B/c/ |\
d/c/B/A/G/A/ B/A/G/A/B/c/ | d/c/B/A/G/A/ B/A/G/A/B/c/ |\
d/c/B/c/d/e/ f/e/f/d/A/B/ !segno!| c3 e3 |\
c6 |]


